build/assets/images/proyectos/logos/logo-isdi.svg

<svg width="200" height="200" viewBox="0 0 200 200" fill="none" xmlns="http://www.w3.org/2000/svg">
<rect width="200" height="200" fill="white"/>
<g clip-path="url(#clip0)">
<path fill-rule="evenodd" clip-rule="evenodd" d="M136.805 57.0396H63.9427V142.641H136.805V57.0396ZM83.1079 98.4748V99.499L74.4859 92.692V92.062L83.1079 85.2535V86.2777L75.3848 92.377L83.1079 98.4748ZM117.638 98.4748V99.499L126.262 92.692V92.062L117.638 85.2535V86.2777L125.363 92.377L117.638 98.4748ZM88.2899 71.2425V90.6159H93.6232V71.2425H88.2899ZM106.356 76.0804C107.641 76.4323 108.879 76.9334 110.046 77.5733L112.577 73.175C112.095 72.9567 111.555 72.7208 110.951 72.4791C110.347 72.2373 109.701 72.0073 109.008 71.7978C108.3 71.5868 107.58 71.4169 106.853 71.2865C106.098 71.1487 105.333 71.0799 104.564 71.0799C103.54 71.0752 102.52 71.2183 101.537 71.5048C100.625 71.7648 99.7651 72.1813 98.9961 72.7355C98.2262 73.2926 97.6042 74.0287 97.1842 74.8799C96.7642 75.7312 96.5588 76.6718 96.5858 77.6202C96.5743 78.2618 96.6814 78.9 96.9016 79.5029C97.1165 80.057 97.451 80.5572 97.8813 80.968C98.3807 81.4354 98.9506 81.8207 99.5675 82.1138C100.355 82.4918 101.171 82.8053 102.009 83.0544C102.651 83.2522 103.257 83.4265 103.83 83.573C104.403 83.7195 104.911 83.8661 105.352 84.0126C105.724 84.1235 106.075 84.2943 106.392 84.518C106.506 84.5952 106.6 84.6988 106.665 84.82C106.731 84.9412 106.766 85.0763 106.768 85.214C106.767 85.3407 106.731 85.4647 106.665 85.5728C106.599 85.6809 106.504 85.769 106.392 85.8279C106.14 85.9817 105.692 86.0593 105.051 86.0593C104.211 86.0601 103.376 85.9502 102.565 85.7326C101.821 85.5392 101.092 85.2931 100.381 85.0001C99.6236 84.695 98.8875 84.3392 98.178 83.9349L95.6472 88.6013C96.3214 88.9618 97.022 89.2709 97.7418 89.5288C99.2964 90.0905 100.907 90.4835 102.546 90.7009C103.345 90.8093 104.149 90.865 104.955 90.865C105.943 90.8641 106.927 90.759 107.893 90.5514C108.818 90.3606 109.704 90.0137 110.513 89.5258C111.284 89.0542 111.926 88.3999 112.382 87.6212C112.854 86.8329 113.089 85.8557 113.089 84.6909C113.114 83.8901 112.959 83.0939 112.637 82.3599C112.338 81.7254 111.894 81.1695 111.342 80.7365C110.721 80.2577 110.037 79.8672 109.309 79.5762C108.439 79.2234 107.549 78.9225 106.643 78.6751C106.019 78.4949 105.46 78.3396 104.971 78.2121C104.547 78.1063 104.129 77.9742 103.721 77.8165C103.436 77.713 103.17 77.5608 102.937 77.3667C102.849 77.2879 102.779 77.1908 102.732 77.0823C102.686 76.9737 102.663 76.8563 102.667 76.7382C102.66 76.5831 102.701 76.4296 102.785 76.2985C102.868 76.1675 102.99 76.0653 103.134 76.0056C103.53 75.8445 103.956 75.7698 104.384 75.7873C105.052 75.7927 105.716 75.8913 106.356 76.0804ZM88.2899 94.8487V114.222H95.2007C96.5729 114.241 97.9366 114.005 99.2223 113.526C100.376 113.091 101.426 112.422 102.307 111.561C103.178 110.694 103.854 109.653 104.29 108.505C104.77 107.228 105.006 105.872 104.987 104.508C104.996 103.231 104.783 101.961 104.357 100.756C103.958 99.5947 103.311 98.5336 102.461 97.6455C101.611 96.7575 100.578 96.0637 99.4338 95.612C98.2103 95.1036 96.7973 94.8487 95.1934 94.8487H88.2899ZM99.2708 102.457C99.4794 103.121 99.5807 103.812 99.5719 104.508C99.5764 105.192 99.4774 105.872 99.2782 106.526C99.1034 107.112 98.8155 107.66 98.4306 108.137C98.0565 108.592 97.5839 108.955 97.0485 109.201C96.4668 109.463 95.8338 109.594 95.1948 109.583H93.6232V99.4887H95.1948C95.8246 99.4777 96.4495 99.6006 97.0279 99.8491C97.5591 100.084 98.0309 100.434 98.4086 100.875C98.7984 101.34 99.0915 101.878 99.2708 102.457ZM107.092 94.8487V114.222H112.426V94.8487H107.092ZM74.3082 123.748V128.383L75.9592 128.381C76.2789 128.386 76.5965 128.329 76.8948 128.214C77.1654 128.11 77.4101 127.949 77.6118 127.741C77.8135 127.533 77.9673 127.284 78.0625 127.011C78.1741 126.705 78.2285 126.381 78.2241 126.056C78.2241 125.751 78.1756 125.448 78.0772 125.159C77.9861 124.888 77.8392 124.639 77.6483 124.427C77.4515 124.213 77.2106 124.044 76.9418 123.931C76.6289 123.804 76.294 123.741 75.9562 123.748H74.3082ZM77.3736 125.386C77.4427 125.605 77.4779 125.83 77.475 126.059C77.4794 126.284 77.4485 126.509 77.3839 126.724C77.3222 126.919 77.2223 127.101 77.0902 127.256C76.9595 127.408 76.7964 127.528 76.6128 127.609C76.4071 127.697 76.1839 127.741 75.9606 127.736H75.0456V124.394H75.9606C76.181 124.39 76.3998 124.433 76.6025 124.519C76.7868 124.599 76.9513 124.717 77.0846 124.867C77.2178 125.017 77.3165 125.194 77.3736 125.386ZM79.1788 123.748V128.383H79.9132V123.748H79.1788ZM83.7729 128.254C84.0061 128.15 84.2149 127.998 84.3858 127.808L84.3887 128.387H85.0042V126.043H83.4061V126.583H84.3814V127.08C84.2125 127.292 84.0021 127.468 83.763 127.596C83.553 127.703 83.3209 127.758 83.0859 127.758C82.8802 127.76 82.6761 127.714 82.491 127.625C82.3103 127.537 82.1488 127.414 82.0166 127.262C81.8785 127.105 81.7728 126.923 81.7022 126.727C81.5556 126.307 81.5509 125.851 81.689 125.429C81.7528 125.233 81.8524 125.05 81.9828 124.89C82.1083 124.736 82.2644 124.61 82.4411 124.519C82.6247 124.422 82.8288 124.372 83.0359 124.372C83.2932 124.37 83.5466 124.435 83.7703 124.561C83.9985 124.693 84.1813 124.891 84.2947 125.128L84.8573 124.726C84.7045 124.422 84.468 124.169 84.1757 123.993C83.8706 123.828 83.5319 123.734 83.1852 123.718C82.8384 123.703 82.4926 123.765 82.1737 123.902C81.9089 124.022 81.6711 124.194 81.4746 124.408C81.2751 124.624 81.1186 124.877 81.0134 125.152C80.7878 125.729 80.7878 126.37 81.0134 126.947C81.1188 127.225 81.2752 127.482 81.4746 127.704C81.6696 127.92 81.9051 128.097 82.1679 128.223C82.4374 128.351 82.7328 128.417 83.0315 128.415C83.2872 128.413 83.5397 128.359 83.7729 128.254ZM86.0735 123.748V128.383H86.8079V123.748H86.0735ZM89.8204 124.396H91.3656V123.75H87.5305V124.396H89.086V128.384H89.8204V124.396ZM93.5586 123.748H92.9167L91.0719 128.383H91.8503L92.335 127.122H94.127L94.6176 128.383H95.3902L93.5586 123.748ZM93.2369 124.591L93.9831 126.58H92.4658L93.2369 124.591ZM96.0952 123.748V128.383H99.3266V127.736H96.8296V123.748H96.0952ZM103.789 124.396H105.334V123.75H101.499V124.396H103.054V128.384H103.789V124.396ZM107.531 123.748H106.89L105.039 128.383H105.817L106.302 127.122H108.1L108.59 128.383H109.363L107.531 123.748ZM107.211 124.591L107.956 126.58H106.439L107.211 124.591ZM110.064 123.748V128.383H113.295V127.736H110.798V123.748H110.064ZM117.186 128.383V127.736L114.733 127.738V126.321H116.807V125.715H114.733V124.396H117.127V123.748H114V128.383H117.186ZM118.803 128.383V125.118L121.431 128.383H122.03V123.754H121.296V127.09L118.64 123.748H118.069V128.383H118.803ZM125.059 124.396H126.603V123.75H122.769V124.396H124.324V128.384H125.059V124.396Z" fill="black"/>
</g>
<defs>
<clipPath id="clip0">
<rect width="72.8535" height="85.71" fill="white" transform="translate(64 57)"/>
</clipPath>
</defs>
</svg>

<svg width="200" height="200" fill="none" xmlns="http://www.w3.org/2000/svg"><path fill="#fff" d="M0 0h200v200H0z"/><g clip-path="url(#clip0)"><path fill-rule="evenodd" clip-rule="evenodd" d="M136.805 57.04H63.943v85.601h72.862V57.04zM83.108 98.475v1.024l-8.622-6.807v-.63l8.622-6.808v1.024l-7.723 6.099 7.723 6.098zm34.53 0v1.024l8.624-6.807v-.63l-8.624-6.808v1.024l7.725 6.099-7.725 6.098zM88.29 71.243v19.373h5.333V71.243H88.29zm18.066 4.837c1.285.352 2.523.853 3.69 1.493l2.531-4.398a39.264 39.264 0 00-1.626-.696 23.574 23.574 0 00-1.943-.681 19.762 19.762 0 00-2.155-.511 12.739 12.739 0 00-2.289-.207 10.646 10.646 0 00-3.027.425 8.184 8.184 0 00-2.54 1.23 5.833 5.833 0 00-2.411 4.885c-.012.642.095 1.28.316 1.883a4.05 4.05 0 00.98 1.465 6.64 6.64 0 001.685 1.146 16.51 16.51 0 002.442.94 38.4 38.4 0 001.821.519c.573.147 1.081.293 1.522.44.372.11.723.281 1.04.505a.851.851 0 01.376.696.7.7 0 01-.376.614c-.252.154-.7.231-1.341.231a9.57 9.57 0 01-2.486-.326 16.878 16.878 0 01-2.184-.733 18.14 18.14 0 01-2.203-1.065l-2.53 4.666a15.6 15.6 0 002.094.928 23.06 23.06 0 004.804 1.172c.799.108 1.603.164 2.409.164.988 0 1.972-.106 2.938-.314a8.333 8.333 0 002.62-1.025 5.478 5.478 0 001.869-1.905c.472-.788.707-1.765.707-2.93.025-.8-.13-1.597-.452-2.331a4.505 4.505 0 00-1.295-1.623 8.49 8.49 0 00-2.033-1.16c-.87-.354-1.76-.654-2.666-.902a67.709 67.709 0 00-1.672-.463 10.561 10.561 0 01-1.25-.395 2.627 2.627 0 01-.784-.45.819.819 0 01-.27-.629.752.752 0 01.467-.732 2.992 2.992 0 011.25-.219 7.165 7.165 0 011.972.293zM88.29 94.85v19.373h6.91a11.08 11.08 0 004.022-.696 8.91 8.91 0 003.085-1.965 8.64 8.64 0 001.983-3.056c.48-1.277.716-2.633.697-3.997a11.025 11.025 0 00-.63-3.752 8.488 8.488 0 00-1.896-3.11 8.523 8.523 0 00-3.027-2.034c-1.224-.508-2.637-.763-4.24-.763H88.29zm10.98 7.608a6.56 6.56 0 01.302 2.051 6.771 6.771 0 01-.294 2.018 4.711 4.711 0 01-.847 1.611 3.89 3.89 0 01-1.382 1.064 4.333 4.333 0 01-1.854.382h-1.572V99.489h1.572a4.447 4.447 0 011.833.36 3.886 3.886 0 011.38 1.026c.39.465.683 1.003.863 1.582zm7.822-7.608v19.373h5.334V94.849h-5.334zm-32.784 28.899v4.635l1.651-.002c.32.005.638-.052.936-.167a1.995 1.995 0 001.168-1.203c.111-.306.165-.63.161-.955 0-.305-.048-.608-.147-.897a2.091 2.091 0 00-.429-.732 2.026 2.026 0 00-.706-.496 2.483 2.483 0 00-.986-.183h-1.648zm3.066 1.638c.069.219.104.444.101.673.004.225-.026.45-.091.665a1.536 1.536 0 01-.294.532c-.13.152-.294.272-.477.353a1.573 1.573 0 01-.652.127h-.915v-3.342h.915c.22-.004.439.039.642.125a1.377 1.377 0 01.77.867zm1.805-1.638v4.635h.734v-4.635h-.734zm4.594 4.506c.233-.104.442-.256.613-.446l.003.579h.615v-2.344h-1.598v.54h.975v.497a1.985 1.985 0 01-.618.516 1.49 1.49 0 01-.677.162 1.345 1.345 0 01-.595-.133 1.496 1.496 0 01-.474-.363 1.661 1.661 0 01-.315-.535 2.026 2.026 0 01-.013-1.298c.064-.196.163-.379.294-.539.125-.154.281-.28.458-.371.184-.097.388-.147.595-.147.257-.002.51.063.734.189.229.132.411.33.525.567l.562-.402a1.8 1.8 0 00-.681-.733 2.306 2.306 0 00-2.002-.091c-.265.12-.503.292-.7.506a2.465 2.465 0 00-.461 2.539c.106.278.262.535.462.757.195.216.43.393.693.519.27.128.565.194.863.192a1.84 1.84 0 00.742-.161zm2.3-4.506v4.635h.735v-4.635h-.735zm3.747.648h1.546v-.646H87.53v.646h1.555v3.988h.734v-3.988zm3.739-.648h-.642l-1.845 4.635h.778l.485-1.261h1.792l.49 1.261h.773l-1.831-4.635zm-.322.843l.746 1.989h-1.517l.77-1.989zm2.858-.843v4.635h3.232v-.647H96.83v-3.988h-.735zm7.694.648h1.545v-.646h-3.835v.646h1.555v3.988h.735v-3.988zm3.742-.648h-.641l-1.851 4.635h.778l.485-1.261h1.798l.49 1.261h.773l-1.832-4.635zm-.32.843l.745 1.989h-1.517l.772-1.989zm2.853-.843v4.635h3.231v-.647h-2.497v-3.988h-.734zm7.122 4.635v-.647l-2.453.002v-1.417h2.074v-.606h-2.074v-1.319h2.394v-.648H114v4.635h3.186zm1.617 0v-3.265l2.628 3.265h.599v-4.629h-.734v3.336l-2.656-3.342h-.571v4.635h.734zm6.256-3.987h1.544v-.646h-3.834v.646h1.555v3.988h.735v-3.988z" fill="#000"/></g><defs><clipPath id="clip0"><path fill="#fff" transform="translate(64 57)" d="M0 0h72.853v85.71H0z"/></clipPath></defs></svg>
